packages/shared-assets/badges/podcast--badge--spotify.svg

<?xml version="1.0" encoding="UTF-8"?>
<svg width="660px" height="160px" viewBox="0 0 660 160" version="1.1" xmlns="http://www.w3.org/2000/svg" xmlns:xlink="http://www.w3.org/1999/xlink">
    <!-- Generator: Sketch 52.6 (67491) - http://www.bohemiancoding.com/sketch -->
    <title>spotify-podcast-badge-blk-grn-660x160</title>
    <desc>Created with Sketch.</desc>
    <g id="spotify-podcast-badge-blk-grn-660x160" stroke="none" stroke-width="1" fill="none" fill-rule="evenodd">
        <g id="Group-2">
            <path d="M621.849267,0.5 L38.1719518,0.5 C36.9484748,0.5 36.4075013,0.500229769 35.7307453,0.501381463 C35.0322738,0.502570112 34.3997447,0.504670833 33.792046,0.507990385 C33.4368433,0.510193256 33.067518,0.51382847 32.6659117,0.518925238 C32.1842832,0.525037564 31.8247706,0.530614149 30.9163575,0.545499973 C30.5181117,0.552020216 30.3434684,0.554840137 30.1226073,0.558244796 C26.9942217,0.636210385 24.5260798,0.836875499 22.1737395,1.25812108 C19.4924857,1.7271531 17.0566814,2.5250712 14.7051545,3.71870199 C12.3560458,4.92085902 10.2088187,6.48329304 8.34888318,8.34395774 C6.48453023,10.1872313 4.92472798,12.3347359 3.72517397,14.7005355 C2.53645561,17.0239701 1.74305093,19.4613079 1.26976824,22.175675 C0.842988951,24.5166796 0.640528321,26.9656363 0.560227165,30.1090095 C0.543995635,30.6494731 0.53341756,31.2034769 0.52372763,31.9421584 C0.521346512,32.1236755 0.519575238,32.2690441 0.515689217,32.5963006 C0.508640825,33.1898365 0.505221367,33.454774 0.5,33.7772 C0.5,35.953 0.5,35.953 0.5,38.1444 L0.5,121.8592 C0.5,123.616824 0.5,123.616824 0.5,125.354326 C0.5,125.7942 0.5,125.7942 0.499937643,126.226504 C0.505203985,126.559928 0.508516802,126.817447 0.515689041,127.41991 C0.519518865,127.7414 0.521249827,127.882981 0.523603679,128.062074 C0.533303309,128.80007 0.543903523,129.356367 0.560289402,129.90923 C0.640532055,133.050041 0.84299795,135.49897 1.27044453,137.843717 C1.74460138,140.563185 2.53969725,143.009582 3.72557031,145.319841 C4.92941479,147.682992 6.49198355,149.827662 8.35197838,151.651933 C10.204326,153.519884 12.3491708,155.079622 14.7053674,156.273807 C17.0254053,157.462488 19.4500168,158.257635 22.1757908,158.749842 C24.4982915,159.166097 26.9052608,159.359993 30.1211377,159.449321 C31.4094843,159.477639 32.6131229,159.492 33.7916765,159.492007 C34.3997447,159.495329 35.0322738,159.49743 35.7307453,159.498619 C36.4075013,159.49977 36.9484748,159.5 38.1719518,159.5 L621.849667,159.5 C622.931477,159.5 623.415133,159.499833 624.018862,159.499 C624.817009,159.4979 625.51991,159.495715 626.189436,159.492 C627.370958,159.492 628.61394,159.477311 629.866451,159.44939 C633.097074,159.360251 635.495739,159.166597 637.798396,158.749948 C640.522828,158.258278 642.953857,157.463641 645.300261,156.272978 C647.65272,155.078498 649.797056,153.518049 651.650204,151.647763 C653.491761,149.834063 655.056732,147.690723 656.285432,145.321038 C657.469498,142.981201 658.264133,140.52457 658.718552,137.838128 C659.142595,135.55937 659.335364,133.268218 659.453199,129.915717 C659.460472,129.336975 659.464726,128.740261 659.466854,128.067065 C659.468455,127.560392 659.468773,127.155795 659.468888,126.223658 C659.475003,125.93908 659.480063,125.648008 659.484179,125.347477 C659.497376,124.384134 659.5,123.614536 659.5,121.8592 L659.5,38.1444 C659.5,35.9565978 659.494822,34.9914869 659.468773,33.7772 C659.468773,32.8573794 659.468448,32.4481381 659.466824,31.9369885 C659.464681,31.2625461 659.460425,30.6675193 659.453467,30.1111444 C659.335366,26.747418 659.142597,24.4561811 658.717115,22.1689796 C658.265573,19.499146 657.47291,17.0524828 656.287225,14.7016707 C655.062365,12.3278391 653.499587,10.1807744 651.647317,8.34137068 C649.792375,6.48451098 647.645442,4.92118127 645.302047,3.71992432 C642.921535,2.52316395 640.480281,1.72605144 637.798242,1.25722367 C635.468329,0.835996554 633.009167,0.635620095 629.872209,0.557935472 C629.521053,0.552236471 629.521053,0.552236471 629.168225,0.546408352 C628.634412,0.53759951 628.349099,0.533011797 628.027353,0.528193954 C627.32434,0.517667034 626.739727,0.510819631 626.186935,0.507193744 C625.525219,0.503883442 624.827805,0.501921116 624.03749,0.500923284 C623.428444,0.500154318 622.940531,0.5 621.849267,0.5 Z" id="Path" stroke="#222326" fill="#000000"></path>
            <path d="M357.389931,74.6665274 C359.462334,75.9068698 362.147582,75.2182272 363.379973,73.1292884 C364.611805,71.0437171 363.930306,68.3458319 361.852322,67.1054894 C344.507323,56.7522778 317.060966,55.779086 300.550398,60.8184684 C298.239108,61.5245095 296.936391,63.9788161 297.636308,66.3023536 C298.336225,68.6247686 300.77868,69.9358275 303.088295,69.2314701 C317.471204,64.8420047 342.323291,65.6692738 357.389931,74.6665274 Z M356.896528,87.9926322 C357.949753,86.2718675 357.410582,84.0156789 355.697627,82.9549335 C341.270624,74.0396212 320.167058,71.5308742 303.190436,76.7105669 C301.267059,77.2998698 300.179787,79.3427869 300.760819,81.2807518 C301.345758,83.2147881 303.381323,84.3075242 305.308607,83.7221499 C320.169291,79.1862006 339.323247,81.4350931 351.884362,89.1993002 C353.597317,90.2578007 355.839955,89.7173256 356.896528,87.9926322 Z M351.177188,100.790609 C352.017201,99.4099567 351.584636,97.605567 350.211035,96.7620219 C337.89104,89.1920041 322.617885,87.4302688 304.812972,91.523399 C303.241786,91.8831544 302.262795,93.4540678 302.622242,95.0305936 C302.980015,96.6065582 304.54227,97.5949035 306.110107,97.2334643 C322.380114,93.4961609 336.195387,95.01993 347.17192,101.765485 C348.543847,102.609591 350.337734,102.175191 351.177188,100.790609 Z M329.741524,33 C355.556416,33 376.482491,54.0420453 376.482491,79.9994388 C376.482491,105.958516 355.556416,127 329.741524,127 C303.927191,127 283,105.958516 283,79.9994388 C283,54.0420453 303.927191,33 329.741524,33 Z M410.166707,76.3889758 C419.999038,78.793332 424.008771,82.5255842 424.008771,89.2739453 C424.008771,97.2587201 417.941147,102.418208 408.551427,102.418208 C401.913934,102.418208 395.763704,100.046404 390.762143,95.5570376 C390.548372,95.3673382 390.52493,95.0395735 390.710235,94.8201282 L395.128532,89.5326774 C395.218952,89.4232354 395.349001,89.3570089 395.49077,89.3452229 C395.625842,89.3373655 395.772077,89.3800198 395.878683,89.4720633 C400.176979,93.2149792 404.019826,94.8105872 408.730035,94.8105872 C412.971399,94.8105872 415.606973,92.9652269 415.606973,89.9968236 C415.606973,87.3174594 414.303698,85.8195073 406.581166,84.0308324 C397.507916,81.8257168 392.25742,78.9690004 392.25742,70.9011619 C392.25742,63.3777271 398.344021,58.1194607 407.057824,58.1194607 C412.984237,58.1194607 418.054451,59.885686 422.557029,63.5185986 C422.775264,63.6948282 422.819358,64.0113681 422.657495,64.2414769 L418.716972,69.8269467 C418.633808,69.9448073 418.509341,70.0222586 418.36813,70.0435857 C418.226918,70.0660354 418.083474,70.0317997 417.969054,69.9459298 C414.185371,67.1094181 410.577504,65.7315716 406.93838,65.7315716 C403.184279,65.7315716 400.659218,67.5455023 400.659218,70.242265 C400.659218,73.095614 402.096449,74.453817 410.166707,76.3889758 Z M452.068532,85.4333735 C452.068532,79.8265765 448.497503,75.7587022 443.579663,75.7587022 C438.638381,75.7587022 434.911071,79.9163751 434.911071,85.4333735 C434.911071,90.9509332 438.638381,95.1080449 443.579663,95.1080449 C448.577876,95.1080449 452.068532,91.1316528 452.068532,85.4333735 Z M445.252432,68.38568 C452.814776,68.38568 460.47033,74.2411067 460.47033,85.4333735 C460.47033,96.6233954 452.814776,102.477138 445.252432,102.477138 C441.183535,102.477138 437.844695,100.959543 435.091352,97.852513 L435.091352,110.891263 C435.091352,111.184792 434.854698,111.42388 434.562787,111.42388 L427.337006,111.42388 C427.045095,111.42388 426.808998,111.184792 426.808998,110.891263 L426.808998,69.5828069 C426.808998,69.2892779 427.045095,69.0501893 427.337006,69.0501893 L434.562787,69.0501893 C434.854698,69.0501893 435.091352,69.2892779 435.091352,69.5828069 L435.091352,73.3004669 C437.844137,69.997564 441.182419,68.38568 445.252432,68.38568 Z M480.093689,95.1675364 C485.323533,95.1675364 489.119496,91.1266016 489.119496,85.5551628 C489.119496,80.002245 485.187903,75.8170713 479.974245,75.8170713 C474.778448,75.8170713 471.00816,79.8613735 471.00816,85.4333735 C471.00816,90.9823627 474.913519,95.1675364 480.093689,95.1675364 Z M480.093689,68.38568 C489.800436,68.38568 497.401292,75.8737566 497.401292,85.4333735 C497.401292,95.0249812 489.74797,102.540559 479.974245,102.540559 C470.302103,102.540559 462.724689,95.0788603 462.724689,85.5551628 C462.724689,75.9265133 470.354569,68.38568 480.093689,68.38568 Z M518.198993,69.0501893 C518.490904,69.0501893 518.725884,69.2892779 518.725884,69.5828069 L518.725884,75.8277349 C518.725884,76.1207026 518.490904,76.3597913 518.198993,76.3597913 L510.247062,76.3597913 L510.247062,91.3802825 C510.247062,93.752648 511.281868,94.8105872 513.599856,94.8105872 C515.104064,94.8105872 516.449758,94.4856286 517.841778,93.7812713 C518.003083,93.7010138 518.198993,93.706065 518.356391,93.8054046 C518.512114,93.9019381 518.607557,94.0748003 518.607557,94.2583261 L518.607557,100.205235 C518.607557,100.394935 518.504858,100.573409 518.340204,100.666014 C516.31357,101.821609 514.163027,102.359839 511.570989,102.359839 C505.196383,102.359839 501.96415,99.0490787 501.96415,92.5190404 L501.96415,76.3597913 L498.48968,76.3597913 C498.198327,76.3597913 497.963347,76.1207026 497.963347,75.8277349 L497.963347,69.5828069 C497.963347,69.2892779 498.198327,69.0501893 498.48968,69.0501893 L501.96415,69.0501893 L501.96415,60.8751537 C501.96415,60.5816247 502.201921,60.3430973 502.49439,60.3430973 L509.719612,60.3430973 C510.011524,60.3430973 510.247062,60.5816247 510.247062,60.8751537 L510.247062,69.0501893 L518.198993,69.0501893 Z M545.903772,69.08218 L558.248326,69.08218 C558.467678,69.08218 558.664704,69.2180003 558.741729,69.424537 L567.182597,91.5727882 L574.888943,69.4391292 C574.962618,69.2258577 575.164668,69.08218 575.389601,69.08218 L582.912317,69.08218 C583.087575,69.08218 583.247763,69.1691723 583.347114,69.31285 C583.447022,69.4587727 583.465441,69.6434209 583.402928,69.8073033 L570.866372,102.381727 C568.265962,109.105394 565.316709,111.605161 559.980817,111.605161 C557.128682,111.605161 554.820183,111.010807 552.263308,109.618368 C552.018839,109.485915 551.919489,109.186213 552.036142,108.930848 L554.485294,103.527781 C554.543899,103.392522 554.659994,103.289815 554.797857,103.240426 C554.937394,103.197211 555.089768,103.208997 555.2187,103.280274 C556.589511,104.034582 557.930182,104.416787 559.203317,104.416787 C560.77841,104.416787 561.932101,103.895955 563.105328,101.277766 L552.770106,76.3597913 L546.023216,76.3597913 L546.023216,101.284501 C546.023216,101.57803 545.785445,101.816558 545.493534,101.816558 L538.267753,101.816558 C537.9764,101.816558 537.740862,101.57803 537.740862,101.284501 L537.740862,76.3597913 L534.269183,76.3597913 C533.97783,76.3597913 533.738942,76.1207026 533.738942,75.8277349 L533.738942,69.5508162 C533.738942,69.2578484 533.97783,69.0187598 534.269183,69.0187598 L537.740862,69.0187598 L537.740862,67.4809596 C537.740862,60.3346787 541.268355,56.5552822 547.943244,56.5552822 C550.685982,56.5552822 552.517823,56.9952951 553.949472,57.4229607 C554.173289,57.4919934 554.322873,57.6996525 554.322873,57.9331287 L554.322873,64.0562674 C554.322873,64.2268846 554.244174,64.3879608 554.104637,64.4884229 C553.969007,64.588885 553.794865,64.6152634 553.627979,64.5625067 C552.272796,64.1079016 551.062732,63.8070764 549.556291,63.8070764 C547.030115,63.8070764 545.903772,65.1243089 545.903772,68.07812 L545.903772,69.08218 Z M529.842513,69.0501893 C530.133866,69.0501893 530.371637,69.2892779 530.371637,69.5828069 L530.371637,101.284501 C530.371637,101.57803 530.133866,101.816558 529.842513,101.816558 L522.616174,101.816558 C522.324263,101.816558 522.08705,101.57803 522.08705,101.284501 L522.08705,69.5828069 C522.08705,69.2892779 522.324263,69.0501893 522.616174,69.0501893 L529.842513,69.0501893 Z M526.265902,54.6156335 C529.127526,54.6156335 531.448304,56.9464672 531.448304,59.8250719 C531.448304,62.7047992 529.127526,65.0378778 526.265902,65.0378778 C523.403721,65.0378778 521.080152,62.7047992 521.080152,59.8250719 C521.080152,56.9464672 523.403721,54.6156335 526.265902,54.6156335 Z M589.867954,72.2038021 L588.544027,72.2038021 L588.544027,73.901556 L589.867954,73.901556 C590.528801,73.901556 590.923411,73.5765974 590.923411,73.0518372 C590.923411,72.4995761 590.528801,72.2038021 589.867954,72.2038021 Z M590.726385,74.6255568 L592.164732,76.6505141 L590.951877,76.6505141 L589.656974,74.7933678 L588.544027,74.7933678 L588.544027,76.6505141 L587.528756,76.6505141 L587.528756,71.283367 L589.909257,71.283367 C591.148903,71.283367 591.964915,71.9209367 591.964915,72.9951518 C591.964915,73.8751776 591.459233,74.4128464 590.726385,74.6255568 Z M589.598926,69.4969371 C586.994051,69.4969371 585.022673,71.5791409 585.022673,74.1288585 C585.022673,76.6768924 586.980097,78.7315955 589.572135,78.7315955 C592.176453,78.7315955 594.149505,76.6505141 594.149505,74.099674 C594.149505,71.5510789 592.190965,69.4969371 589.598926,69.4969371 Z M589.572135,79.242886 C586.712186,79.242886 584.486851,76.9333795 584.486851,74.1288585 C584.486851,71.3237763 586.74121,68.9884528 589.598926,68.9884528 C592.458317,68.9884528 594.684211,71.297398 594.684211,74.099674 C594.684211,76.904195 592.431526,79.242886 589.572135,79.242886 Z" id="Combined-Shape" fill="#1ED760"></path>
            <path d="M78.436,91.616 L63,91.616 L63,67.51 L67.692,67.51 L67.692,87.128 L78.436,87.128 L78.436,91.616 Z M89.6256759,91.616 L84.8656759,91.616 L84.8656759,67.51 L89.6256759,67.51 L89.6256759,91.616 Z M114.551352,73.256 L110.335352,74.548 C110.097352,73.222 109.009352,71.148 105.949352,71.148 C103.671352,71.148 102.175352,72.61 102.175352,74.208 C102.175352,75.534 103.025352,76.588 104.793352,76.928 L108.159352,77.574 C112.545352,78.424 114.891352,81.28 114.891352,84.68 C114.891352,88.386 111.797352,92.126 106.187352,92.126 C99.7953517,92.126 96.9733517,88.012 96.5993517,84.578 L100.951352,83.422 C101.155352,85.802 102.821352,87.944 106.221352,87.944 C108.737352,87.944 110.131352,86.686 110.131352,84.986 C110.131352,83.592 109.077352,82.504 107.207352,82.13 L103.841352,81.45 C99.9993517,80.668 97.5173517,78.186 97.5173517,74.548 C97.5173517,70.264 101.359352,67 105.915352,67 C111.763352,67 114.007352,70.536 114.551352,73.256 Z M139.953028,71.964 L132.337028,71.964 L132.337028,91.616 L127.611028,91.616 L127.611028,71.964 L119.995028,71.964 L119.995028,67.51 L139.953028,67.51 L139.953028,71.964 Z M161.478703,91.616 L146.382703,91.616 L146.382703,67.51 L161.478703,67.51 L161.478703,71.93 L151.074703,71.93 L151.074703,77.438 L160.492703,77.438 L160.492703,81.62 L151.074703,81.62 L151.074703,87.196 L161.478703,87.196 L161.478703,91.616 Z M189.668379,91.616 L184.738379,91.616 L173.790379,74.514 L173.790379,91.616 L169.098379,91.616 L169.098379,67.51 L174.946379,67.51 L184.976379,83.456 L184.976379,67.51 L189.668379,67.51 L189.668379,91.616 Z M212.421731,79.546 C212.421731,84.986 216.229731,87.57 219.935731,87.57 C223.675731,87.57 227.483731,84.986 227.483731,79.546 C227.483731,74.106 223.675731,71.522 219.935731,71.522 C216.229731,71.522 212.421731,74.106 212.421731,79.546 Z M207.559731,79.58 C207.559731,71.794 213.407731,67 219.935731,67 C226.497731,67 232.345731,71.794 232.345731,79.58 C232.345731,87.332 226.497731,92.126 219.935731,92.126 C213.407731,92.126 207.559731,87.332 207.559731,79.58 Z M260.195407,91.616 L255.265407,91.616 L244.317407,74.514 L244.317407,91.616 L239.625407,91.616 L239.625407,67.51 L245.473407,67.51 L255.503407,83.456 L255.503407,67.51 L260.195407,67.51 L260.195407,91.616 Z" id="LISTEN-ON" fill="#FFFFFF"></path>
        </g>
    </g>
</svg>

<svg width="660" height="160" xmlns="http://www.w3.org/2000/svg"><g fill="none" fill-rule="evenodd"><path d="M621.85.5H38.171a1321.251 1321.251 0 0 0-4.38.008c-.355.002-.724.006-1.126.01a430.62 430.62 0 0 0-2.543.04c-3.129.078-5.597.279-7.95.7-2.68.47-5.116 1.267-7.468 2.46A25.265 25.265 0 0 0 8.35 8.345a24.531 24.531 0 0 0-4.624 6.357c-1.189 2.323-1.982 4.76-2.455 7.475-.427 2.34-.63 4.79-.71 7.933-.016.54-.027 1.094-.036 1.833l-.008.654c-.007.594-.01.859-.016 1.181V126.227a280.409 280.409 0 0 1 .024 1.835c.01.738.02 1.294.036 1.847.08 3.141.283 5.59.71 7.935.475 2.72 1.27 5.166 2.456 7.476a24.34 24.34 0 0 0 4.626 6.332 24.616 24.616 0 0 0 6.353 4.622c2.32 1.188 4.745 1.984 7.47 2.476 2.323.416 4.73.61 7.946.7 1.288.028 2.492.042 3.67.042l1.94.007 2.441.001H621.85l2.169-.001c.798-.001 1.5-.003 2.17-.007 1.182 0 2.425-.015 3.677-.043 3.231-.089 5.63-.282 7.932-.7 2.725-.49 5.156-1.285 7.502-2.476a24.64 24.64 0 0 0 6.35-4.625c1.842-1.814 3.407-3.957 4.635-6.327 1.184-2.34 1.98-4.796 2.434-7.483.424-2.279.616-4.57.734-7.922.007-.579.012-1.176.014-1.849.001-.507.002-.911.002-1.843.006-.285.011-.576.015-.877.013-.963.016-1.732.016-3.488V38.144c0-2.187-.005-3.153-.031-4.367 0-.92 0-1.329-.002-1.84a195.24 195.24 0 0 0-.014-1.826c-.118-3.364-.31-5.655-.736-7.942-.451-2.67-1.244-5.117-2.43-7.467a25.293 25.293 0 0 0-4.64-6.36 25.278 25.278 0 0 0-6.345-4.622c-2.38-1.197-4.822-1.994-7.504-2.463-2.33-.421-4.789-.621-7.926-.7l-.704-.01c-.534-.01-.819-.014-1.14-.019a216.898 216.898 0 0 0-3.99-.027L621.848.5Z" stroke="#222326" fill="#000"/><path d="M357.39 74.667a4.356 4.356 0 0 0 5.99-1.538 4.409 4.409 0 0 0-1.528-6.024c-17.345-10.353-44.791-11.326-61.302-6.287-2.31.707-3.614 3.16-2.914 5.484a4.367 4.367 0 0 0 5.452 2.93c14.383-4.39 39.235-3.563 54.302 5.435Zm-.493 13.326a3.676 3.676 0 0 0-1.2-5.038c-14.426-8.915-35.53-11.424-52.507-6.244-1.923.589-3.01 2.632-2.43 4.57a3.646 3.646 0 0 0 4.549 2.441c14.86-4.536 34.014-2.287 46.575 5.477a3.634 3.634 0 0 0 5.013-1.206Zm-5.72 12.798a2.939 2.939 0 0 0-.966-4.029c-12.32-7.57-27.593-9.332-45.398-5.239a2.926 2.926 0 0 0-2.19 3.508 2.912 2.912 0 0 0 3.487 2.202c16.27-3.737 30.085-2.213 41.062 4.532a2.902 2.902 0 0 0 4.005-.974ZM329.742 33c25.814 0 46.74 21.042 46.74 47 0 25.959-20.926 47-46.74 47C303.927 127 283 105.959 283 80c0-25.958 20.927-47 46.742-47Zm80.425 43.389c9.832 2.404 13.842 6.137 13.842 12.885 0 7.985-6.068 13.144-15.458 13.144-6.637 0-12.787-2.372-17.789-6.861a.53.53 0 0 1-.052-.737l4.419-5.287c.09-.11.22-.176.362-.188a.554.554 0 0 1 .388.127c4.298 3.743 8.14 5.339 12.851 5.339 4.241 0 6.877-1.846 6.877-4.814 0-2.68-1.303-4.177-9.026-5.966-9.073-2.205-14.324-5.062-14.324-13.13 0-7.523 6.087-12.782 14.8-12.782 5.927 0 10.997 1.767 15.5 5.4a.534.534 0 0 1 .1.722l-3.94 5.586a.52.52 0 0 1-.349.217.525.525 0 0 1-.399-.098c-3.784-2.837-7.391-4.214-11.03-4.214-3.755 0-6.28 1.814-6.28 4.51 0 2.854 1.437 4.212 9.508 6.147Zm41.902 9.044c0-5.606-3.571-9.674-8.49-9.674-4.94 0-8.668 4.157-8.668 9.674 0 5.518 3.727 9.675 8.669 9.675 4.998 0 8.489-3.976 8.489-9.675Zm-6.817-17.047c7.563 0 15.218 5.855 15.218 17.047 0 11.19-7.655 17.044-15.218 17.044-4.068 0-7.407-1.517-10.16-4.624v13.038a.531.531 0 0 1-.53.533h-7.225a.53.53 0 0 1-.528-.533V69.583a.53.53 0 0 1 .528-.533h7.226c.292 0 .528.24.528.533V73.3c2.753-3.302 6.091-4.914 10.161-4.914Zm34.842 26.782c5.23 0 9.025-4.041 9.025-9.613 0-5.553-3.931-9.738-9.145-9.738-5.196 0-8.966 4.044-8.966 9.616 0 5.55 3.906 9.735 9.086 9.735Zm0-26.782c9.706 0 17.307 7.488 17.307 17.047 0 9.592-7.653 17.108-17.427 17.108-9.672 0-17.25-7.462-17.25-16.986 0-9.628 7.63-17.17 17.37-17.17Zm38.105.664a.53.53 0 0 1 .527.533v6.245a.53.53 0 0 1-.527.532h-7.952v15.02c0 2.373 1.035 3.43 3.353 3.43 1.504 0 2.85-.324 4.242-1.029a.526.526 0 0 1 .514.024c.156.097.252.27.252.453v5.947a.53.53 0 0 1-.268.461c-2.026 1.156-4.177 1.694-6.769 1.694-6.375 0-9.607-3.31-9.607-9.841v-16.16h-3.474a.53.53 0 0 1-.527-.531v-6.245a.53.53 0 0 1 .527-.533h3.474v-8.175c0-.293.238-.532.53-.532h7.226a.53.53 0 0 1 .527.532v8.175h7.952Zm27.705.032h12.344c.22 0 .417.136.494.343l8.44 22.148 7.707-22.134a.531.531 0 0 1 .5-.357h7.523c.176 0 .336.087.435.23.1.147.118.331.056.495l-12.537 32.575c-2.6 6.723-5.55 9.223-10.885 9.223-2.852 0-5.16-.594-7.718-1.987a.53.53 0 0 1-.227-.687l2.45-5.403a.536.536 0 0 1 .312-.288.54.54 0 0 1 .42.04c1.372.755 2.712 1.137 3.985 1.137 1.575 0 2.73-.521 3.902-3.14L552.77 76.36h-6.747v24.925a.531.531 0 0 1-.53.532h-7.225a.53.53 0 0 1-.527-.532V76.36h-3.472a.533.533 0 0 1-.53-.532V69.55c0-.293.239-.532.53-.532h3.472V67.48c0-7.146 3.527-10.926 10.202-10.926 2.743 0 4.575.44 6.006.868a.532.532 0 0 1 .374.51v6.123a.53.53 0 0 1-.695.507c-1.355-.455-2.565-.756-4.072-.756-2.526 0-3.652 1.317-3.652 4.271v1.004Zm-16.061-.032c.29 0 .529.24.529.533v31.702a.531.531 0 0 1-.53.532h-7.226a.531.531 0 0 1-.529-.532V69.583c0-.294.237-.533.53-.533h7.226Zm-3.577-14.434c2.862 0 5.182 2.33 5.182 5.21 0 2.879-2.32 5.212-5.182 5.212-2.862 0-5.186-2.333-5.186-5.213 0-2.879 2.324-5.21 5.186-5.21Zm63.602 17.588h-1.324v1.698h1.324c.66 0 1.055-.325 1.055-.85 0-.552-.394-.848-1.055-.848Zm.858 2.422 1.439 2.025h-1.213l-1.295-1.858h-1.113v1.858h-1.015v-5.368h2.38c1.24 0 2.056.638 2.056 1.712 0 .88-.506 1.418-1.239 1.63Zm-1.127-5.13c-2.605 0-4.576 2.083-4.576 4.633 0 2.548 1.957 4.603 4.55 4.603 2.603 0 4.577-2.081 4.577-4.632 0-2.549-1.959-4.603-4.551-4.603Zm-.027 9.747c-2.86 0-5.085-2.31-5.085-5.114 0-2.805 2.254-5.14 5.112-5.14 2.86 0 5.085 2.308 5.085 5.11 0 2.805-2.252 5.144-5.112 5.144Z" fill="#1ED760"/><path d="M78.436 91.616H63V67.51h4.692v19.618h10.744v4.488Zm11.19 0h-4.76V67.51h4.76v24.106Zm24.925-18.36-4.216 1.292c-.238-1.326-1.326-3.4-4.386-3.4-2.278 0-3.774 1.462-3.774 3.06 0 1.326.85 2.38 2.618 2.72l3.366.646c4.386.85 6.732 3.706 6.732 7.106 0 3.706-3.094 7.446-8.704 7.446-6.392 0-9.214-4.114-9.588-7.548l4.352-1.156c.204 2.38 1.87 4.522 5.27 4.522 2.516 0 3.91-1.258 3.91-2.958 0-1.394-1.054-2.482-2.924-2.856l-3.366-.68c-3.842-.782-6.324-3.264-6.324-6.902 0-4.284 3.842-7.548 8.398-7.548 5.848 0 8.092 3.536 8.636 6.256Zm25.402-1.292h-7.616v19.652h-4.726V71.964h-7.616V67.51h19.958v4.454Zm21.526 19.652h-15.096V67.51h15.096v4.42h-10.404v5.508h9.418v4.182h-9.418v5.576h10.404v4.42Zm28.19 0h-4.93L173.79 74.514v17.102h-4.692V67.51h5.848l10.03 15.946V67.51h4.692v24.106Zm22.753-12.07c0 5.44 3.808 8.024 7.514 8.024 3.74 0 7.548-2.584 7.548-8.024 0-5.44-3.808-8.024-7.548-8.024-3.706 0-7.514 2.584-7.514 8.024Zm-4.862.034c0-7.786 5.848-12.58 12.376-12.58 6.562 0 12.41 4.794 12.41 12.58 0 7.752-5.848 12.546-12.41 12.546-6.528 0-12.376-4.794-12.376-12.546Zm52.635 12.036h-4.93l-10.948-17.102v17.102h-4.692V67.51h5.848l10.03 15.946V67.51h4.692v24.106Z" fill="#FFF"/></g></svg>
